X:1
T:HEJ  SLAVONIJO
T:Bis 1 
C:Priredio Marijan Makar
L:1/8
Q:1/4=70
M:2/4
K:E
V:1 treble transpose=12 nm="Bisernica 1"
V:1
!mf! x2 F/4E/4D/4!<(!E/4F/4G/4A/4!<)!^A/4 |:!f! (!>!B4 | B4 | !///!B!///!A G2 | F4) || %5
[M:3/4] (!///!G!///!B !///!c!///!B !///!A/!///!G/!///!F || %6
[M:7/8]"^rit." !///!G!///!B!///!c !///!B!///!A/!///!G/ F7/4) !fermata!z/4 ||[M:2/4][Q:1/4=50] (B4 | %8
 !///!B!///!A G2 ||[M:4/4] F4-) F z[Q:1/4=60] z2 ||[M:3/4]"^A""^accel." z6 | %11
!mf! A2 !///!B!///!G !///!F!///!G |!<(!{/^A} !>!B6 || %13
[M:4/4] A2 !///!B!///!G !///!F!///!G!<)! !fermata!z2 || %14
[M:3/4]!f![Q:1/4=60] A2 !///!B!///!G !///!F!///!G || %15
[M:4/4] A2 !///!B!///!G !fermata!F3-[Q:1/4=50] (6:4:6F/4E/4F/4G/4A/4^A/4 :| %16
 A2 BG !fermata!F7/2 z/ |:[K:D][M:2/2]"^B"!mf![Q:1/4=120] !///!F3 E !///!F2 FG | %18
 !///!A2 AB !///!A2 !///!F2 | !///!A2 !///!G2 GF !///!E2 | !///!F3 D !///!E4 :| %21
 !///!!>!B4 !///!!>!B4 | !///!A2 AB !///!A2 !///!F2 | !///!G2 !///!F2 !///!G2 !///!E2 | %24
 !///!F2 !///!G2 !///!A4 | !///!!>!B4 !///!!>!B4 | !///!A2 AB !///!A2 !///!F2 | %27
 !///!A2 !///!G2 !///!F2 !///!E2 | !///!D4 !///!D3 z ||[K:E][M:2/4]"^C" z4 | z4 | z4 | z4 |: z4 | %34
 z4 | z4 | z4 | z4 | z4 || z4 | z4 :| z4 | z4 |: z4 | z4 | z4 | z4 | z4 | z4 | z4 | %50
 z B,/C/ D/E/F/G/ || AG FE | FE FG | AG FG |{/^A} B/A/B/c/ B=A/G/ | AG FE | FE FG | AG A/G/F/E/ || %58
 F2 F z :| F2 F z || z4 | z4 | z4 | z4 | z4 | z4 |:"^D" z4 | z4 | z4 | z4 | z4 | z4 | z4 | %73
 z2 E/F/G/A/ ||"^E" !///!B4- | !///!B4- | !///!B4- | !///!B4 |{/^A} !///!!>!B4- | !///!B4- | %80
 !///!B4- | !///!B3 z || EE FG | AA AB | GG AG | FF FF | EE FG | AA AB | GG AG | FF FF :| %90
[K:A]!p! !///!!>!E4- | !///!E4- | !///!E4- | !///!!>!E4- | !///!E4- | !///!!>!E4- | !///!E4 | %97
!<(! EE FG | AA!<)! A z ||[K:D]"^F"!mf!"^Vivo"[Q:1/4=120] !tenuto!.A2 !tenuto!.F2 | %100
 !tenuto!.G2 !tenuto!.E2 | !tenuto!.F2 !tenuto!.D2 | EG FE | !tenuto!.F2 !tenuto!.D2 | EG FG | %105
 !tenuto!.A2 !tenuto!.A2 | AA Bc | dd d z ||[K:A]"^Con moto"[Q:1/4=120][Q:1/4=148] z4 | z4 | z4 | %111
 z4 ||"^G" z4 | z4 | z4 | z4 | z4 | z4 | z4 | z4 ||"^H" z4 | z4 | z4 | z4 | z4 | z4 | z4 | z4 | %128
 z4 | z4 | z4 | z4 ||"^I" z4 | z4 | z4 | z4 | z4 | z4 | z4 | z4 ||"^J"[Q:1/4=152] z4 | z4 | z4 | %143
 z4 | z4 | z4 | z4 | z4 ||"^K" z4 | z4 | z4 | z4 | z4 | z4 | z4 | z4 ||"^L"[Q:1/4=156] z4 | z4 | %158
 z4 | z4 | z4 | z4 | z4 | z4 ||"^M" z4 | z4 | z4 | z4 | z4 | z4 | z4 | z4"^tutti" || %172
[K:E]!f![Q:1/4=120]{/^A} !///!B4 |{/^A} !///!B4 |{/^A} B z B z | !///!B4 || %176
"^N""^soli"!mf! BB{c=d} cB | ^A/B/c/=d/ cB | .B{/d}e .B=d |{c=d} c/B/^A/B/{cd} cB | %180
"^Prva dva  pulta" BB{c=d} cB | ^A/B/c/=d/ cB | (ed) (ed) | e=d{cd} cB ||"^O" .B{/d}e .e=d | %185
 !trill(!Tc!trill)!B AB/A/ | !trill(!TG!trill)!E A/G/F/G/ | ^A/B/A/B/ !trill(!Tc!trill)!B | %188
 e>=d cB | AG A(B/A/) | GE A/G/F/G/ | ^A/B/A/B/"^tutti" A/B/c/d/ | e>=d cB | AG A(B/A/) | %194
 GE A/G/F/G/ | !///!F2 F z ||"^P"!///!{/^A} !///!B2 c/B/A/B/ | cA B/A/G/A/ | GE A/G/F/G/ | %199
 B/^A/B cB |!///!{/^A} !///!B2 c/B/A/B/ | cA B/A/G/A/ | GE A/G/F/G/ || %203
"^Meno mosso" !///!F2 !///!G2 | A4 | z4 ||[Q:1/4=128]"^$" z4 | z4 | z4 | z4 | %210
"^1. x TACET" !///!e2 !///!e2 | !///!e2 !///!c2 | !///!B2 !///!B2 | Bc !///!B2 | !///!A3 G | %215
 !///!F3 z || !///!G3 A | !///!B2 !///!B2 | !///!B2 Bc | !///!B2 !///!G2 | !///!A3 G | FB cd | %222
 !///!e2 ed | !//!e !///!c3 | !///!B2 !///!B2 | Bc !///!B2 | !///!A3 G | !///!F3 z | z4 | z4 | %230
 [B,F][B,F] [B,F][B,F]"^Ø" || [B,F] z[Q:1/4=172] z2 |] %232

